src/social-designernews-outline.svg

<?xml version="1.0" encoding="utf-8"?>
<!-- Generated by IcoMoon.io -->
<!DOCTYPE svg PUBLIC "-//W3C//DTD SVG 1.1//EN" "http://www.w3.org/Graphics/SVG/1.1/DTD/svg11.dtd">
<svg version="1.1" xmlns="http://www.w3.org/2000/svg" xmlns:xlink="http://www.w3.org/1999/xlink" width="512" height="512" viewBox="0 0 512 512">
<path fill="#000000" d="M290.9 145.9l-64.4-49.9 64.6 102.8z"></path>
<path fill="#000000" d="M329 96v164h-35.9l-63.2-98 1.7 98h-40.6v-107.1l-37.1-29.1c1 1.2 2.1 2.4 3 3.6 10 13.8 15 30.7 15 50.5 0 48.9-30.5 82-76.8 82h-63.1l200.1 156h247.9v-201.2l-151-118.7zM464 400h-226.3l-159.1-124h16.5c13.5 0 26.2-2.7 37.7-7.4s21.4-11.8 29.8-20.7c4.8-5.1 9.4-11 12.4-17.1v45.2h73l-0.3-16.5-0.7-41.9 32.6 50.7 4.7 7.6h60.7v-146.6l0.2 0.3 118.8 92.8v177.6z"></path>
<path fill="#000000" d="M90.6 150.4c11 0 23.7 3.2 23.7 28.8 0 6.9-1 16.3-6 21.8-3.6 3.9-9.6 6-17.7 6h-3.6v-57h3zM90.7 134h-19.7v89h19.5c26 0 39.9-15.6 39.9-43.9 0-28.8-14.3-45.1-39.7-45.1v0z"></path>
</svg>

<?xml version="1.0" encoding="utf-8"?>
<!-- Generator: Adobe Illustrator 16.2.1, SVG Export Plug-In . SVG Version: 6.00 Build 0)  -->
<!DOCTYPE svg PUBLIC "-//W3C//DTD SVG 1.1//EN" "http://www.w3.org/Graphics/SVG/1.1/DTD/svg11.dtd">
<svg version="1.1" id="Layer_1" xmlns="http://www.w3.org/2000/svg" xmlns:xlink="http://www.w3.org/1999/xlink" x="0px" y="0px"
	 width="512px" height="512px" viewBox="0 0 512 512" style="enable-background:new 0 0 512 512;" xml:space="preserve">
<g>
	<polygon points="290.9,145.9 226.5,96 291.1,198.8 	"/>
	<g>
		<path d="M32.5,260"/>
		<path d="M329,96v80.3V260h-35.9l-63.2-98l1.7,98H191V152.9l-37.1-29.1c1,1.2,2.1,2.4,3,3.6c10,13.8,15,30.7,15,50.5
			c0,48.9-30.5,82-76.8,82H32l200.1,156H480V214.7L329,96z M464,400H237.7L78.6,276h16.5c13.5,0,26.2-2.7,37.7-7.4
			c11.5-4.7,21.4-11.8,29.8-20.7c4.8-5.1,9.4-11,12.4-17.1v28.7V276h16.2h40.4H248l-0.3-16.5l-0.7-41.9l32.6,50.7l4.7,7.6h8.8h36.8
			H345v-16.5v-83.1v-47l0.2,0.3L464,222.4V400z"/>
	</g>
	<path d="M90.6,150.4c11,0,23.7,3.2,23.7,28.8c0,6.9-1,16.3-6,21.8c-3.6,3.9-9.6,6-17.7,6H87v-57h3 M90.7,134H71v89h19.5
		c26,0,39.9-15.6,39.9-43.9C130.4,150.3,116.1,134,90.7,134L90.7,134z"/>
</g>
</svg>
